!!!COM: Anon.
!!!OTL: Dum Sigillum
!!!SCA: Folio 344-346
!!!YOR: from 'Thirty-Five Conductus for Two and Three Voices', pp.109-118
!!!YOR: edited by Janet Knapp, Collegium Musicum No. 6, Yale University (1965)
!!!YOR: from the School of Notre Dame; circa 1170-1240
!!!YOO: Yale University
!!!YOY: 1965
**kern	**kern
*M6/8	*M6/8
=1	=1
4G	16g
.	16f
.	8e
8G	8d
4F	4.c
8G	.
=2	=2
8A	16d
.	16c
8G	8B
8E	8A
4.G	4.G
=3	=3
2.r	4B
.	8c
.	4d
.	8c
=4	=4
4G	16g
.	16f
.	8e
8G	8d
4F	16f
.	16e
.	8d
8G	8c
=5	=5
8A	4.A
8G	.
8F	.
4.E	4B
.	8c
=6	=6
4.D	4.d
4.r	4.r
=7	=7
4G	4G
8G	8r
4F	4c
8A	8B
=8	=8
8c	4A
8B	.
8A	8F
4G	4G
8r	8r
=9	=9
4d	4d
8d	8G
4G	8c
.	8B
8d	8A
=10	=10
8c	4c
8B	.
8A	8r
4B	4d
8r	8d
=11	=11
4d	4G
8d	8A
4c	8c
.	8B
8e	8A
=12	=12
8g	4G
8f	.
8e	8r
4d	4d
8d	8d
=13	=13
8f	4c
8e	.
8d	8d
4B	8f
.	8e
8d	8f
=14	=14
8c	4g
8B	.
8d	8r
8B	4d
8G	.
8A	8e
=15	=15
8c	4.c
8B	.
8A	.
4G	4d
8r	8r
=16	=16
4G	4g
8B	8f
4d	8e
.	8d
8e	8c
=17	=17
4f	4c
8d	8d
4d	8d
.	8e
8c	8f
=18	=18
8B	8e
8A	8d
8B	8e
4c	4c
8r	8r
=19	=19
[2.c	4.c
.	8d
.	8e
.	8f
=20	=20
2.c]	4.g
.	16g
.	16f
.	16e
.	16d
.	16c
.	16B
=21	=21
4.c	4.A
[4.c	4.G
=22	=22
2.c_	8c
.	8d
.	8e
.	4f
.	8f
=23	=23
2.c]	4.d
.	8e
.	8f
.	8e
=24	=24
4.d	4.d
4.r	4.r
=25	=25
4e	4e
8f	8d
4g	4c
8c	8e
=26	=26
4d	4d
8e	8d
4f	4c
8r	8r
=27	=27
4e	4e
8f	8d
8e	4c
8d	.
8e	8c
=28	=28
4d	8d
.	8e
8c	8f
4d	4d
8r	8r
=29	=29
4e	4e
8d	8f
8c	4g
8B	.
8A	8f
=30	=30
4B	4e
8c	8e
4d	4d
8B	8e
=31	=31
4d	4d
8G	8d
4A	4.c
8B	.
=32	=32
8c	4.c
8B	.
8A	.
4G	4d
8r	8r
=33	=33
2.A	16e
.	16d
.	8c
.	8B
.	4.A
=34	=34
[2.B	4.B
.	4G
.	8r
=35	=35
2.B]	4.B
.	4A
.	8G
=36	=36
[2.c	4.c
.	8d
.	8e
.	8f
=37	=37
2.c_	4.g
.	16g
.	16f
.	16e
.	16d
.	16c
.	16B
=38	=38
4.c]	4.A
[4.c	4.G
=39	=39
2.c_	4.A
.	4B
.	8c
=40	=40
2.c]	4B
.	8B
.	4.A
=41	=41
4.d	4.G
4.r	4.r
=42	=42
4d	4.d
8d	.
4c	4.e
8r	.
=43	=43
4d	4.d
8d	.
4B	4e
8r	8r
=44	=44
4d	4.d
8c	.
8B	4e
8A	.
8G	8f
=45	=45
4B	8e
.	8d
8c	8e
4d	4d
8r	8r
=46	=46
4c	4g
8A	8g
4.B	4f
.	8f
=47	=47
4.c	4e
.	8e
4.B	4.d
=48	=48
4.A	4.c
4G	4d
8A	8r
=49	=49
4B	4B
8B	8c
4G	4d
8r	8r
=50	=50
4A	4A
8G	8B
4F	4c
8E	8r
=51	=51
4D	8d
.	8d
8r	8e
[4.F	16f
.	16e
.	16d
.	16c
.	16B
.	16A
=52	=52
2.F]	4.G
.	4.A
=53	=53
4.G	4.G
4.r	4.r
=54	=54
4g	4G
8f	8A
8e	4c
8d	.
8e	8c
=55	=55
8d	8d
8c	8e
8B	8f
4A	4e
8r	8r
=56	=56
4G	4d
8B	8d
4A	4d
8B	8d
=57	=57
8d	8e
8c	8c
8B	8d
4A	4e
8r	8r
=58	=58
4G	4d
8B	8d
4A	8d
.	8e
8B	8f
=59	=59
4d	4d
8d	8G
8d	4d
8c	.
8A	8r
=60	=60
4c	4c
8B	8d
8A	8e
8G	8d
8A	8c
=61	=61
4B	4B
8A	8c
4G	4d
8r	8r
=62	=62
4d	8g
.	8f
8d	8e
4d	4d
8d	8G
=63	=63
8e	4A
8d	.
8c	8A
8B	4A
8A	.
8B	8r
=64	=64
4d	4G
8d	8B
4d	4d
8e	8c
=65	=65
8d	8d
8c	8e
8B	8f
4d	4d
8r	8r
=66	=66
4g	4c
8g	8B
4e	4A
8c	8c
=67	=67
8d	8B
8e	8A
8f	8B
4d	4G
8B	8r
=68	=68
4d	4d
8e	8B
4c	4c
8A	8r
=69	=69
4c	8c
.	8B
8d	8A
4B	4B
8G	8r
=70	=70
4B	8c
.	8A
8c	8G
4A	8A
.	8B
8A	8c
=71	=71
4G	8d
.	8d
8r	8e
[4.F	16f
.	16e
.	16d
.	16c
.	16B
.	16A
=72	=72
2.F]	4.G
.	4.A
=73	=73
4.G	4.G
4.r	4.r
=74	=74
[2.G	4.d
.	4e
.	8f
=75	=75
4.G]	4d
.	8B
4G	4G
8F	8r
=76	=76
4.E	4.A
4.D	4A
.	8B
=77	=77
[2.D	4.G
.	8A
.	8B
.	8c
=78	=78
2.D]	4d
.	8d
.	16e
.	16d
.	8c
.	8B
=79	=79
4D	4.A
8E	.
[4.G	4.A
=80	=80
4.G]	4.G
4.r	4.r
=81	=81
4A	4c
8B	8d
4A	4e
8G	8d
=82	=82
4.F	4.f
4.G	4.d
=83	=83
4A	4e
8B	8d
4c	4c
8B	8d
=84	=84
4.A	4.e
4.r	4.r
=85	=85
4B	4d
8c	8e
4d	4d
8e	8c
=86	=86
4d	4d
8c	8e
4B	4d
8A	8c
=87	=87
4.G	4B
.	8c
4.F	4.A
=88	=88
4.G	4.G
4.r	4.r
=89	=89
[2.A	4.A
.	4B
.	8c
=90	=90
4.A]	8B
.	8B
.	8c
4A	4.A
8F	.
=91	=91
4.G	4.B
4.r	4G
.	8r
=92	=92
4B	4f
8c	8f
4d	4f
8e	8e
=93	=93
4f	4c
8d	8d
4d	4B
8B	8d
=94	=94
4c	4f
8c	16e
.	16d
4c	4c
16B	8d
16A	.
=95	=95
4G	4d
8A	8d
4B	4d
8r	8r
=96	=96
4A	4e
8B	8e
4c	4e
8d	8d
=97	=97
16c	4d
16B	.
8A	.
8G	8d
4G	4B
8F	8c
=98	=98
4G	4d
8A	8d
4B	4d
8c	8c
=99	=99
8B	8B
8A	8A
8G	8B
4.F	4.A
=100	=100
4.G	4.G
4.r	4.r
=101	=101
8d	8d
8G	8e
8d	8f
8d	4g
8c	.
8d	8g
=102	=102
8c	8g
8B	8f
8A	8d
4B	4B
8r	8r
=103	=103
8c	8c
8A	8d
8c	8e
8c	4e
8B	.
8c	8r
=104	=104
8c	8c
8B	8d
8A	8e
4B	4e
8r	8f
=105	=105
8d	4d
8G	.
8d	8r
8d	4d
8c	.
8d	8r
=106	=106
8c	4c
8B	.
8A	8r
4B	4B
8r	8r
=107	=107
8c	8A
8A	8G
8c	8A
8B	4B
8A	.
8B	8r
=108	=108
8A	8A
8G	8c
8F	8B
4G	4G
8r	8r
=109	=109
4.A	4.F
4G	4G
8r	8r
=110	=110
4F	4c
8A	8d
4G	4d
8r	8G
=111	=111
4B	4G
8B	8d
4G	4d
8c	8r
=112	=112
4A	4c
8A	8d
4G	8d
.	8e
8r	8f
=113	=113
4d	4d
8d	8r
4c	4c
8e	8r
=114	=114
4d	4B
8d	8r
4B	8B
.	8A
8c	8F
=115	=115
4d	4G
8d	8A
4B	4B
8r	8B
=116	=116
4d	4G
8d	8r
4c	4c
8d	8B
=117	=117
4e	8A
.	8B
8f	8c
4d	4d
8g	8G
=118	=118
8f	8A
8e	8B
8d	8B
4B	4B
8f	8r
=119	=119
8e	8A
8d	8c
8c	8c
4A	4c
8r	8r
=120	=120
8e	8B
16e	8d
16d	.
8B	8d
4G	4d
8r	8r
=121	=121
8d	8d
16d	8f
16c	.
8A	8f
4F	8f
.	8e
8r	8c
=122	=122
4G	4d
8G	8d
8F	4c
8E	.
8F	8r
=123	=123
4G	4B
8G	8r
8F	4A
8E	.
8D	8r
=124	=124
4G	4G
8G	8A
8F	4B
8E	.
8F	8B
=125	=125
4.G	4.G
4.r	4.r
=126	=126
2.A	4.A
.	4B
.	8c
=127	=127
4.G	4.d
4.r	4.r
=128	=128
[2.F	8c
.	8d
.	8e
.	4.f
=129	=129
2.F_	16f
.	16e
.	16d
.	16c
.	16B
.	16A
.	4.G
=130	=130
4.F]	4.A
4G;	4G;
8r	8r
!! New section
=131	=131
4G	16g
.	16f
.	8e
8A	8d
4B	8B
.	8A
8B	8G
=132	=132
8B	8B
8A	8d
8G	8c
4A	4A
8r	8r
=133	=133
4G	16g
.	16f
.	8e
8A	8d
4c	16c
.	16B
.	8A
8c	8G
=134	=134
8c	8A
8B	8B
8A	8A
4B	4G
8r	8r
=135	=135
4B	4B
8c	16A
.	16G
4d	4B
8d	16A
.	16G
=136	=136
8d	4d
8c	.
8A	8e
4F	8f
.	8e
8G	8c
=137	=137
8A	4A
8G	.
8F	8e
4E	8e
.	8d
8F	8B
=138	=138
8G	4G
8F	.
8E	8d
4D	8d
.	8c
8D	8B
=139	=139
4F	4F
8G	8r
8A	4F
8G	.
8B	8G
=140	=140
8A	8A
8G	8c
8F	8B
4G	4G
8r	8r
=141	=141
4G	4g
8B	8e
4c	4f
8d	16e
.	16d
=142	=142
4d	4d
8B	16e
.	16d
4c	4c
8r	8r
=143	=143
4.c	4.e
4.B	4.d
=144	=144
8A	4.c
8G	.
8A	.
8B	4.B
8A	.
8B	.
=145	=145
4.c	8A
.	8G
.	8A
4B	8B
.	8A
8r	8B
=146	=146
8A	4.c
8G	.
8A	.
8B	4B
8A	.
8B	8r
=147	=147
4.c	8G
.	8F
.	8G
4A	8A
.	8G
8r	8A
=148	=148
4B	4.B
8c	.
4d	4G
8r	8r
=149	=149
4B	4.e
8c	.
4d	4d
8e	8r
=150	=150
8d	8e
8c	8c
8B	8e
4A	8f
.	8e
8c	8d
=151	=151
8B	8e
8A	8d
8G	8e
4F	4.f
8G	.
=152	=152
4.A	4.e
4.r	4.r
=153	=153
2.A	16e
.	16d
.	8c
.	8B
.	8A
.	8B
.	8c
=154	=154
4.G	4.d
4.r	4.r
=155	=155
4A	4e
8B	8f
4c	8g
.	8f
8r	8e
=156	=156
4d	8d
.	8c
8G	8B
4A	4A
8c	8G
=157	=157
4A	4A
8r	8B
4G	4d
8A	8G
=158	=158
4G	8c
.	8B
8F	8A
4G	4G
8r	8r
=159	=159
2.G	4c
.	8B
.	4.c
=160	=160
[2.A	4.A
.	8B
.	8c
.	8d
=161	=161
4.A]	4.e
4.r	4.r
=162	=162
4.A	4.e
4A	4e
8G	8d
=163	=163
2.F	8f
.	8e
.	8d
.	4.c
=164	=164
4G	4g
8A	8c
4B	8d
.	8e
8r	8f
=165	=165
4d	4d
8e	8r
4c	4c
8d	8d
=166	=166
4B	8e
.	8f
8c	8g
4A	4e
8r	8f
=167	=167
4G	4d
8A	8e
4F	4c
8G	8d
=168	=168
4E	4B
8F	8c
4D	4A
8r	8r
=169	=169
4D	4d
8E	8G
4F	8A
.	8B
8G	8c
=170	=170
4A	4A
8r	8r
4G	4G
8A	8F
=171	=171
8G	8G
8F	8A
8E	8B
4.F	4.A
=172	=172
4.G	4.G
4.A	4.F
=173	=173
4.G	4.G
4.r	4.r
=174	=174
4d	4G
8d	8B
4B	4d
8d	8d
=175	=175
4c	4e
8B	8f
4A	4e
8G	8d
=176	=176
4B	4d
8c	8e
4B	8d
.	8c
8B	8B
=177	=177
4c	4A
8B	8G
4A	4A
8r	8r
=178	=178
4e	4A
8f	8B
8e	8c
8d	8B
8c	8A
=179	=179
4B	4B
8A	8c
4G	4d
8r	8r
=180	=180
4B	4e
8c	8f
8B	8e
8A	8d
8G	8c
=181	=181
4.F	4B
.	8A
4G	4G
8r	8r
=182	=182
4d	4g
8d	8f
4c	8e
.	8d
8e	8c
=183	=183
4.d	4.d
4d	4.B
8r	.
=184	=184
4g	4.G
8e	.
4c	4.r
8e	.
=185	=185
4.d	4.d
4d	4.B
8r	.
=186	=186
4d	4.G
8d	.
8c	4.r
8B	.
8A	.
=187	=187
4.c	4.g
4c	4.e
8r	.
=188	=188
4c	4c
8c	8d
4A	4e
8c	8r
=189	=189
4B	4B
8B	8c
4G	4.d
8B	.
=190	=190
4A	4.e
8A	.
4F	8f
.	8e
8A	8d
=191	=191
4.G	4.c
4G	4d
8r	8r
=192	=192
2.G	8g
.	8f
.	8e
.	4.d
=193	=193
[2.B	4.B
.	4.r
=194	=194
2.B]	4.B
.	4c
.	8d
=195	=195
2.c	8e
.	8f
.	8e
.	4.c
=196	=196
[2.d	4.d
.	4e
.	8f
=197	=197
2.d]	16g
.	16f
.	16e
.	16d
.	16c
.	16B
.	4.A
=198	=198
4.B	4.B
4.r	4.r
=199	=199
2.B	4.d
.	4e
.	8f
=200	=200
2.c	16g
.	16f
.	16e
.	16d
.	16c
.	16B
.	4.A
=201	=201
4.G	4.B
[4.A	4.c
=202	=202
4.A]	4.A
4.r	4.r
=203	=203
4.c	4.c
4.d	4.B
=204	=204
4.e	4A
.	8B
4.f	4c
.	8r
=205	=205
4e	4A
8r	8B
4d	4d
8e	8r
=206	=206
4d	4G
8r	8A
4c	4c
8e	8r
=207	=207
4.B	4.d
8B	4e
8A	.
8B	8f
=208	=208
2.c	4f
.	8e
.	4e
.	8e
=209	=209
4.d	4.d
4.r	4.r
=210	=210
4.g	4.c
4e	4.r
8e	.
=211	=211
4.c	4.g
4d	4f
8r	8d
=212	=212
4.d	4.d
4B	4.r
8G	.
=213	=213
4.G	4.g
4A	4e
8r	8c
=214	=214
4.c	4.c
4d	4.r
8e	.
=215	=215
4.g	4.c
4.d	4.d
=216	=216
4.B	4.e
4A	4.e
8G	.
=217	=217
4.G	4.d
4.r	4.r
=218	=218
4.A	4.c
4B	4.d
8c	.
=219	=219
4.B	4.e
4.A	4.r
=220	=220
4.B	4.e
4d	4.d
8c	.
=221	=221
4.A	4.e
4.r	4f
.	8e
=222	=222
4.c	4.c
4d	4.r
8e	.
=223	=223
4f	4.c
8e	.
4.d	4.B
=224	=224
4c	4.A
8B	.
4.A	4B
.	8c
=225	=225
4.G	4.d
4.r	4.r
=226	=226
4.c	4.c
4d	8d
.	8c
8c	8d
=227	=227
4.A	4.e
4.c	16f
.	16e
.	16d
.	16c
.	16B
.	16A
=228	=228
4.d	4.G
4.r	4.r
=229	=229
4G	4g
8E	8e
4F	4c
8G	8B
=230	=230
4.D	4.d
4D	4.d
8E	.
=231	=231
4.G	4.d
4.A	4.r
=232	=232
4.B	4B
.	8c
4.r	4d
.	8d
=233	=233
4G	4d
8E	8e
4F	4c
8G	8B
=234	=234
4.D	8d
.	8c
.	8B
4D	4.A
8E	.
=235	=235
4.F	4.F
4.D	4.A
=236	=236
4.G	4.G
4.r	4.r
=237	=237
4G	4d
8A	8c
4G	4B
8F	8A
=238	=238
4G	4G
8A	8A
4G	4B
8F	8r
=239	=239
4G	4d
8A	8c
4B	4B
8A	8c
=240	=240
4.F	4.A
4.r	4.r
=241	=241
4G	4G
8A	8A
4G	4B
8F	8A
=242	=242
4G	4G
8A	8F
4G	4G
8E	8r
=243	=243
4F	4c
8G	8A
4E	4B
8F	8c
=244	=244
8D	4.d
8D	.
8E	.
4G	4G
8r	8r
=245	=245
2.A	4.D
.	4E
.	8F
=246	=246
4.G	4.G
4.r	4.r
=247	=247
4.F	4.A
4.E	4B
.	8c
=248	=248
4.E	4B
.	8B
4.F	4.A
=249	=249
4.G	4.G
4.r	4.r
=250	=250
[2.c	4.c
.	4d
.	8e
=251	=251
2.c]	8f
.	8e
.	8d
.	4.c
=252	=252
2.d	4.B
.	4A
.	8G
=253	=253
4.B	4B
.	8A
4.r	4B
.	8c
=254	=254
4.G	4.G
4.r	4.r
=255	=255
4.A	4.e
4.r	4c
.	8A
=256	=256
4.B	4r
.	8d
4.r	4B
.	8G
=257	=257
4.A	4r
.	8c
4.r	4A
.	8F
=258	=258
4.G	4.G
4.r	4.r
=259	=259
4.c	4.e
4.r	4.r
=260	=260
4.B	4.d
4A	4c
8G	8B
=261	=261
4.A	4.A
4.B	4.G
=262	=262
4.A	4.F
4.r	4.r
=263	=263
4.c	4.e
4.r	4.r
=264	=264
4.B	4.d
4A	4c
8G	8d
=265	=265
4.A	4.e
4.G	4.d
=266	=266
2.F	4c
.	8B
.	4.A
=267	=267
4.G	4.G
4.r	4.r
=268	=268
4.F	4.A
4G	4G
8A	8F
=269	=269
4.G	4.G
4.F	4.A
=270	=270
4.E	4.B
4.r	4.r
=271	=271
4.F	4.c
4.r	4.r
=272	=272
4.E	4.B
4F	4A
8G	8G
=273	=273
4.F	4.A
4.E	4.B
=274	=274
4.D	4.d
4.r	4.r
=275	=275
4.G	4.d
4.r	4.r
=276	=276
4.F	8c
.	8B
.	8A
4A	4.G
8c	.
=277	=277
4.B	2.D
4.A	.
=278	=278
4.G	4.G
4.r	4.r
=279	=279
[2.F	4.A
.	4B
.	8c
=280	=280
2.F]	4B
.	8B
.	4.A
=281	=281
4.G	4.G
4.r	4.r
=282	=282
4d	4f
8e	8e
4c	4e
8d	8d
=283	=283
16c	4e
16B	.
8A	.
8G	8d
4G	4d
8F	8c
=284	=284
4A	4d
8B	8B
4c	4G
8B	8B
=285	=285
8B	8d
8A	8c
8G	8B
4.F	4.A
=286	=286
4.G	4.G
4.r	4.r
=287	=287
4.G	4.B
4.F	4.A
=288	=288
4.A	4.c
4G	4B
8r	8r
=289	=289
4B	4G
8B	8G
4A	4F
8r	8F
=290	=290
8c	4G
8B	.
8B	8G
4A	4A
8r	8r
=291	=291
4A	4A
8B	8B
8A	4c
8G	.
8A	8c
=292	=292
8G	4B
8F	.
8G	8B
4A	4A
8r	8r
=293	=293
4B	4.G
8B	.
4A	4.A
8c	.
=294	=294
4B	4.B
8B	.
4A	4c
8c	8r
=295	=295
8B	8d
8A	8B
8B	8d
8A	8c
8G	8B
8A	8c
=296	=296
4G	4B
8F	8B
4G	4G
8r	8r
=297	=297
4.F	4.c
4.G	4.B
=298	=298
4E	4A
8F	8r
4G	4G
8r	8B
=299	=299
4D	4d
8F	8r
4G	4d
8G	8r
=300	=300
8F	8c
8E	8B
8F	8A
4G	4G
8r	8B
=301	=301
4G	4d
8A	8r
4B	4d
8B	8r
=302	=302
4B	4B
8A	8c
4G	4d
8A	8r
=303	=303
4c	8c
.	8B
8r	8A
4c	8G
.	8A
8r	8B
=304	=304
8c	4.c
8B	.
8A	.
4B	4B
8r	8r
=305	=305
4B	4B
8c	8A
4d	4G
8d	8B
=306	=306
4d	4d
8d	8r
4.B	4d
.	8r
=307	=307
4.c	4c
.	8d
4A	8e
.	8d
8r	8c
=308	=308
4B	4.B
8G	.
4A	4.A
8B	.
=309	=309
4.c	4G
.	8F
4A	4A
8r	8r
=310	=310
4B	4e
8c	8f
4d	4d
8d	8B
=311	=311
4d	4G
8B	8B
4.G	4d
.	8r
=312	=312
4.A	4A
.	8B
4F	4c
8r	8B
=313	=313
4A	4A
8c	8r
8B	4B
8A	.
8G	8G
=314	=314
4.F	4.A
4G	4G
8r	8r
=315	=315
4B	4e
8c	8f
4d	8e
.	8d
8e	8c
=316	=316
8d	4d
8c	.
8B	8r
4d	4d
8r	8B
=317	=317
4d	4d
8B	8e
4d	8d
.	8B
8e	8c
=318	=318
4d	4d
8B	8r
4d	4d
8r	8B
=319	=319
4d	4d
8e	8e
4f	4d
8d	8B
=320	=320
4e	4A
8f	8r
4g	4G
8r	8A
=321	=321
4g	4c
8e	8c
4f	4B
8g	8A
=322	=322
4f	4c
8e	8r
4d	4d
8r	8f
=323	=323
4e	4e
8c	8e
4d	4d
8e	8d
=324	=324
4f	4c
8e	8c
4d	4B
8r	8B
=325	=325
4e	4A
8c	8r
4d	4G
8e	8B
=326	=326
8d	4d
8c	.
8B	8d
4A	4e
8r	8c
=327	=327
4G	4d
8F	8r
4A	4.A
8B	.
=328	=328
4c	4G
8B	8r
4A	4A
8B	8B
=329	=329
4d	4G
8d	8A
4B	4B
8G	8r
=330	=330
4.A	8A
.	8B
.	8c
4G	4d
8r	8r
=331	=331
2.F	8f
.	8e
.	8d
.	4.c
=332	=332
4.E	4.B
4.r	4.r
=333	=333
4.F	8c
.	8B
.	8A
4.G	4.G
=334	=334
4.D	4.d
4.r	4.r
=335	=335
2.F	8f
.	8e
.	8d
.	4.c
=336	=336
4.A	4.A
4.r	4.r
=337	=337
4G	4d
8E	8c
4.F	4.A
=338	=338
4.G	4.G
4.r	4.r
=339	=339
2.D	4.d
.	4d
.	8e
=340	=340
4.E	4c
.	8B
4.F	4B
.	8A
=341	=341
4.G	4.G
4.r	4.r
=342	=342
2.F	8c
.	8d
.	8e
.	4.f
=343	=343
2.F	16f
.	16e
.	16d
.	16c
.	16B
.	16A
.	4.G
=344	=344
4.F	4.A
4G;	4G;
8r	8r
==	==
*-	*-
!!!ENC: David Huron
!!!YEC: Copyright 1987, David Huron
!!!EEV: 1.0
